X: 1
T: Lord Mayo
R: polka
M: 2/4
L: 1/8
K: Gmaj
AG AB|e2 e/d/B/d/|eA AB/A/|G/A/G/F/ ED|
AG AB/d/|e>f g>f|e>f g/d/B/G/|A4:||
a2 g/e/g/a/|b2 ba/g/|ed d/e/g|G>A GE|
a2 g/e/g/a/|b2 ba/g/|ed d/e/g|a4||
a2 g/e/g/a/|b2 ba/g/|ed d/e/g|G>A GE|
A>B d>B|A/G/A/B/ g2|e>f g/d/B/G/|A4||


Tune 638	Setting 13667

